X:760
%%etbk:tnset id:489,pos:1,rep:3x,ant:
%%etbk:pldat 2016-06-09T18:12,2016-06-08T15:26,2016-06-07T15:24,2016-06-04T14:27,2016-06-01T15:54,2016-05-31T15:32,2016-05-29T11:10,2016-05-19T18:17,2016-05-18T15:47,2016-05-17T15:35,2016-05-16T14:12,2016-05-15T15:30,2016-05-14T15:04,2016-05-13T15:25,2016-05-11T15:31,2016-05-09T18:32,2016-03-02T15:44,2016-03-01T18:05,2016-02-29T18:14,2016-02-27T13:13,2016-02-22T18:06,2016-02-04T18:21,2016-02-03T15:27,2016-02-02T15:54,2016-01-28T18:32,2016-01-26T15:33,2016-01-23T15:01,2016-01-20T15:25,2016-01-17T11:20,2016-01-05T16:12,2016-01-04T18:13,2016-01-03T13:16,2016-01-02T13:24,2016-01-01T15:11,2015-12-31T13:28,2015-12-28T16:41,2015-11-20T15:36,2015-11-19T18:08,2015-11-18T15:29,2015-11-17T15:23,2015-11-15T13:52,2015-11-14T14:32,2015-11-13T18:05,2015-11-12T18:18,2015-11-11T17:27,2015-11-10T16:50,2015-11-09T18:27,2015-11-08T11:36,2015-11-03T17:48,2015-10-27T16:13,2015-10-24T16:08,2015-10-21T15:57,2015-10-17T14:47,2015-10-15T19:06,2015-10-13T17:07,2015-09-30T15:20,2015-09-29T16:25,2015-08-30T13:43,2015-08-18T15:41,2015-08-16T13:49
T: Follow The Heron Home
Z: Piano Box Version by Martin Fleischmann
H: Created 2015-08-16 /  Modified 2015-10-21
M: 3/4
L: 1/8
R: song
P:I AABA' I' AABA' I' AABA' I2' CDED' Outro
K:Amaj
P:I
|:"A9""A-Drone"!2!AEAB eB|A6|"Fmaj#11""A-Drone"!2!AFAB eB|A6:|
P:A
|:"A9""A-Drone ea"!2!c2e2g2 |!5!a2g2!3!e2|"Fmaj#11""A-Drone Af"!2!e2>dc2|!3!d4!2!Bc|"D""A-Drone Ad"!4!d2c2B2| "E""A-Drone ABe"!1!A2A2G2|"A9""A-Drone Ae"!1!A6|1z4AB:|2z4a2|| 
P:B
|"E"!3!g2g2a2|!5!b4g2|"A"!4!a2a2!1!e2|"D"!3!f4ed|"A"!2!c4c2|c2d2e2|e2d2c2|"Esus"!1!B6|z6|
P:A'
|"A9"c2e2g2 |a2g2e2|"Fmaj#11"e2>dc2|d6|-d2c2B2| "D"d2c2B2|"E"A2A2G2|| 
P:I'
|"A9"AEAB eB|A6|"Fmaj#11"AFAB eB|A6|"A9"AEAB eB|A6|"Fmaj#11"AFAB eB|AFAB eB||
P:I2'
|"A9"AEAB eB|AEAB eB||
P:C
|"E"g2g2a2|b4g2|"A"a2a2e2|"D"f4ed|"A"c4c2|c2d2e2|e2d2c2|"F#"c6|-c6|
P:D
K:Bmaj
|"B9""H-Drone fish"!2!d2f2a2|!5!b2a2!3!f2|"Gmaj#11" "H-Drone Hg"!2!f2>e!2!d2|!3!e4!2!cd|"E""H-Drone He"!4!e2d2c2|"F#" "H-Drone Hcisfis"!1!B2B2A2|"B9""H-Drone Hfis" B6|z4b2|
P:E
|"F#"!3!a2a2b2|!5!c'4a2|"B"!4!b2b2!2!f2|"E"!3!g4fe|"B"!2!d4d2|d2e2f2|!4!f2e2d2|"F#sus"!1!c6|"F#"z6|
P:D'
|"B9"d2f2a2|b2a2f2|"Gmaj#11"f2>ed2|e6|-e4cd|
"E"e2d2c2|"F#"B2B2A2|"B9"B6|z4cd
"E"e2d2c2| "F#"B2B2A2|"B9"B6| z6||
P:O
|:"Gmaj#11"B=GBc fc|B6|"B9"BFBc fc|B6:|


